X: 1682
T: Bath Road Hornpipe   #2
R: hornpipe, reel
%S: s:3 b:13(5+4+4)
B: O'Neill's 1850 #1682
O: J.O'Neill
Z: Last notes changed from G2 to G4 to fix the rhythm of repeats.
M: 2/4
L: 1/16
K: G
|: GABc d2ef | g2dc (3(BdB)G2 | FGAB cedc |1,3 B2(AG) (3(FAF)D2 :|2,4 BGAF G4 :|
|: d2dd d2d2 | defg      agdB | c2cc c2c2 | cBAG FAFD |
|  GABc d2ef | g2dc (3(BdB)G2 | FGAB cedc | BGAF G4 :|
